!!!!SEGMENT: pl-wtm--r-116-n--005_noskowski-zygmunt--causeries-op-32-rondo.krn
!!!id: 18xx:2139
!!!COM: Noskowski, Zygmunt
!!!COM-rism: pe106604
!!!CDT: 1846/05/02-1909/07/23
!!!CNT: Polish
!!!OTL: Causeries op. 32 – Rondo
!!!PDT: 1850
!!!OMD:Allegretto moderato
!!!SMS-siglum: PL-Wtm
!!!SMS-shelfmark: R 116/N
!!!NIFC-rismID: 1001084180
!!!URL-scan: http://repozytorium.nifc.pl/skany/pl-wtm-nut--r116n
!!!ONB-nifc:
!!!SMS-variant:
!!!SMS-altvar:
**kern	**fing	**kern	**fing	**dynam
*part2	*	*part1	*	*part1
*staff2	*	*staff1	*	*
*	*	*I"piano	*	*
*clefF4	*	*clefG2	*	*
*k[b-e-a-d-]	*	*k[b-e-a-d-]	*	*
*M2/2	*	*M2/2	*	*
*met(c|)	*	*met(c|)	*	*
*	*	*^	*	*
!	!	!	!	!	!LO:DY:rj
4r	.	(4cc/	8a-\L	.	p
.	.	.	8e-\J	.	.
=1	=1	=1	=1	=1	=1
1E-/ 1EE-/	.	4b-/	8d-\L	.	.
.	.	.	8e-\	.	.
.	.	4a-/	8c\	.	.
.	.	.	8e-\J	.	.
.	.	4g/	8B-\L	.	.
.	.	.	8d-\	.	.
.	.	4f/	8G\	.	.
.	.	.	8d-\J	.	.
=2	=2	=2	=2	=2	=2
*^	*	*	*	*	*
(4E-/	[1AA-\	.	2.e-/)	8A-\L	.	.
.	.	.	.	8c\	.	.
4G/	.	.	.	8A-\	.	.
.	.	.	.	8c\J	.	.
4F/	.	.	.	8A-\L	.	.
.	.	.	.	8c\	.	.
4E-/	.	.	(4a-/	8e-\	.	.
.	.	.	.	8c\J	.	.
=3	=3	=3	=3	=3	=3	=3
4G/	2.AA-\]	.	4b-/	8e-\L	.	.
.	.	.	.	8d-\	.	.
4E-/	.	.	4cc/	8g\	.	.
.	.	.	.	8d-\J	.	.
4F/	.	.	4dd-/	8a-\L	.	.
.	.	.	.	8d-\	.	.
4B-/)	4r	.	4b-/	8g\	.	.
.	.	.	.	8d-\J	.	.
*v	*v	*	*	*	*	*
!!LO:LB:g=original
=4	=4	=4	=4	=4	=4
(4c\	.	2.ee-/)	8a-\L	.	.
.	.	.	8e-\	.	.
4d-\	.	.	8g\	.	.
.	.	.	8f\J	.	.
4c\	.	.	8e-\L	.	.
.	.	.	8g\	.	.
4C/	.	(4cc/	8a-\	.	.
.	.	.	8e-\J	.	.
=5	=5	=5	=5	=5	=5
4D-\	.	4b-/	8f\L	.	.
.	.	.	8B-\	.	.
4Dn\	.	4a-/	8f-X\	.	.
.	.	.	8B-\J	.	.
4E-\	.	4g/	8e-\L	.	.
.	.	.	8B-\	.	.
4A-\	.	4fn/	8dn\	.	.
.	.	.	8B-\J	.	.
=6	=6	=6	=6	=6	=6
4G\	.	2.e-/)	8d-X\L	.	.
.	.	.	8B-\	.	.
4E-\	.	.	8c\	.	.
.	.	.	8d-\J	.	.
4G-X\	.	.	8c\L	.	.
.	.	.	8A-\	.	.
4F\	.	(4a-/	8d-\	.	.
.	.	.	8A-\J	.	.
=7	=7	=7	=7	=7	=7
4F-X\	.	4b-/	8a-\L	.	.
.	.	.	8d-\	.	.
4E-\	.	4cc/	8g\	.	.
.	.	.	8e-\J	.	.
4BB-/	.	4dd-/	8a-\L	.	.
.	.	.	8f-X\	.	.
4E-\	.	4b-/	8g\	.	.
.	.	.	8d-\J	.	.
=8	=8	=8	=8	=8	=8
2AA-/)	.	2a-/)	(<8e-\L	.	.
.	.	.	8c\	.	.
.	.	.	8fn\	.	.
.	.	.	8e-\J	.	.
!	!	!LO:TX:t=P:problem:mixed beam	!	!	!
4r	.	4r	8d-\L	.	.
.	.	.	8c\	.	.
4ryy	.	(>4a-/	8B-</	.	.
.	.	.	8A-</J)	.	.
!!LO:LB:g=original
=9	=9	=9	=9	=9	=9
(<1E-\	.	4b-/	8g\L	.	.
.	.	.	8B-\	.	.
.	.	4a-/	8f\	.	.
.	.	.	8B-\J	.	<
.	.	4g/	8e-\L	.	.
.	.	.	8B-\	.	.
.	.	4a-/	8f\	.	.
.	.	.	8B-\J	.	.
=10	=10	=10	=10	=10	=10
2Dn\	.	4b-/	8f\L	.	[
.	.	.	8B-\	.	.
.	.	4a-/	8f\	.	<
.	.	.	8B-\J	.	.
2D-X\	.	4g/	8e-\L	.	.
.	.	.	8B-\	.	.
.	.	4a-/	8e-\	.	.
.	.	.	8B-\J	.	.
=11	=11	=11	=11	=11	=11
2C/	.	4b-/	8e-\L	.	.
.	.	.	8A-\	.	.
.	.	4a-/	8e-\	.	.
.	.	.	8A-\J	.	.
4BB-/	.	4g/	8e-\L	.	.
.	.	.	8B-\	.	.
4AA-/	.	4a-/	8e-\	.	.
.	.	.	8c\J	.	.
=12	=12	=12	=12	=12	=12
4GG/	.	4b-/	8e-\L	.	mf
.	.	.	8B-\	.	.
4FF/	.	4a-/	8dn\	.	.
.	.	.	8B-\J	.	.
2BB-/)	.	4f/	8d\L	.	.
.	.	.	8A-\	.	.
.	.	4a-/	8d\	.	.
.	.	.	8A-\J	.	.
!!LO:LB:g=original
=13	=13	=13	=13	=13	=13
(2EE-/	.	4b-/	8d-X\L	.	>
.	.	.	8B-\	.	.
.	.	4a-/	8c\	.	.
.	.	.	8e-\J	.	]
[2E-\	.	4g/	8B-\L	.	.
.	.	.	8d-\	.	.
.	.	4f/)	8A-\	.	.
.	.	.	8c\J	.	.
=14	=14	=14	=14	=14	=14
!	!	!	!	!	!LO:DY:rj
4E-\]	.	2.e-/	8G\L	.	p
.	.	.	8B-\	.	.
4Dn\	.	.	8c\	.	.
.	.	.	8B-\J	.	.
4D-X\	.	.	8G\L	.	.
.	.	.	8B-\	.	.
4C/	.	(4a-/	8e-\	.	.
.	.	.	8c\J	.	.
=15	=15	=15	=15	=15	=15
4BB-/	.	4b-/	8f\L	.	.
.	.	.	8d-\	.	.
4AA-/	.	4cc/	8f\	.	.
.	.	.	8d-\J	.	.
2GG/	.	4dd-/	8f\L	.	.
.	.	.	8d-\	.	.
.	.	4b-/	8f\	.	.
.	.	.	8d-\J	.	.
=16	=16	=16	=16	=16	=16
4GG-X/	.	2.ee-/)	8a-\L	.	.
.	.	.	8e-\	.	.
4FF/	.	.	8a-\	.	.
.	.	.	8e-\J	.	.
4GGn/	.	.	8b-\L	.	.
.	.	.	8e-\	.	.
4AA-/)	.	(4cc/	8a-\	.	.
.	.	.	8e-\J	.	.
!!LO:LB:g=original
=17	=17	=17	=17	=17	=17
(<2FF/	.	4b-/	8a-\L	.	.
.	.	.	8dn\	.	.
.	.	4a-/	8c\	.	.
.	.	.	8d\J	.	.
2BB-/	.	4g/	8B-\L	.	.
.	.	.	8d\	.	.
.	.	4f/	8A-\	.	.
.	.	.	8d\J	.	.
=18	=18	=18	=18	=18	=18
4E-\	.	2.e-/)	8G\L	.	.
.	.	.	8B-\	.	.
4GG/	.	.	8d-X\	.	.
.	.	.	8B-\J	.	.
4AA-/	.	.	8c\L	.	.
.	.	.	8B-\	.	.
4FF/	.	(4a-/	8A-\	.	.
.	.	.	8c\J	.	.
=19	=19	=19	=19	=19	=19
!LO:N:vis=1	!	!	!	!	!
2D-\)	.	4b-/	8f\L	.	.
.	.	.	8B-\	.	.
.	.	4cc/	8f\	.	>
.	.	.	8g-X\J	.	.
(<4BB-/	.	4dd-/	8f\L	.	.
.	.	.	8d-\	.	.
4E-\	.	4b-/	8gn\	.	.
.	.	.	8d-\J	.	.
!!LO:PB:g=original
=20	=20	=20	=20	=20	=20
[2AA-/	.	[2a-/	8c\L	.	.
.	.	.	8f\	.	]
.	.	.	8e-\	.	.
.	.	.	8c\J	.	.
4AA-/])	.	8a-/])	8A-\	.	.
.	.	8r	8r	.	.
4r	.	(8a-/L	4r	.	mf
.	.	8b-/J	.	.	.
*	*	*v	*v	*	*
=21	=21	=21	=21	=21
(8F\L	.	4cc\	.	.
8c\	.	.	.	.
8f\	.	8dd-\L	.	.
8e-\J	.	8cc\J	.	.
8d-\L	.	8b-\L	.	.
8c\	.	8gg\J)	.	.
8B-\)	.	4gg^\	.	.
8d-\J	.	.	.	.
=22	=22	=22	=22	=22
(8En\L	.	(4b-\	.	.
8c\	.	.	.	.
8g\	.	8cc\L	.	.
8d-\J	.	8b-\J	.	.
8c\L	.	4a-\	.	.
8B-\	.	.	.	.
8A-\	.	4cc\)	.	.
8G\J)	.	.	.	.
=23	=23	=23	=23	=23
(8A-\L	.	(4ff\	.	.
8f\	.	.	.	.
8G\	.	8ee-\L	.	.
8f\J	.	8dd-\J	.	.
8A-\L	.	4cc\	.	.
8c\	.	.	.	.
8En\	.	8b-/L	.	.
8c\J	.	8g/J	.	.
=24	=24	=24	=24	=24
8F\L	.	2a-/)	.	.
8c\	.	.	.	.
8f\	.	.	.	.
8d-\J	.	.	.	.
4c\)	.	4r	.	.
4r	.	(8cc\L	.	f
.	.	8ddn\J	.	.
!!LO:LB:g=original
=25	=25	=25	=25	=25
(8C\L	.	4ee-\	.	.
8G\	.	.	.	.
8A-\	.	8ff\L	.	.
8G\J	.	8ee-\J	.	.
8F\L	.	8ddn\L)	.	.
8c\	.	8aa-\J	.	.
8dn\	.	4aa-^\	.	.
8f\J)	.	.	.	.
=26	=26	=26	=26	=26
(8Dn\L	.	(4bn\	.	.
8G\	.	.	.	.
8An\	.	8gg\L	.	.
8Bn\J	.	8ff\J	.	.
8c\L	.	4ee-\	.	.
8G\	.	.	.	.
8C\	.	4gg\)	.	.
8D\J)	.	.	.	.
=27	=27	=27	=27	=27
(8E-\L	.	(4ccc\	.	.
8c\	.	.	.	.
8A-\	.	8cc\L	.	.
8c\J	.	8ddn\J	.	.
8F\L	.	4ee-\	.	.
8A-\	.	.	.	.
8G\)	.	8ff\L	.	.
8Bn\J	.	8dd\J)	.	.
=28	=28	=28	=28	=28
(8C\L	.	4cc\	.	.
8G\	.	.	.	.
8An\	.	4gg\ 4ee-\ 4g^\	.	.
8Bn\J	.	.	.	.
8c\L	.	4gg\ 4ee-\ 4g^\	.	.
8dn\	.	.	.	.
8e-\J)	.	4gg\ 4cc\ 4g^\	.	.
8r	.	.	.	.
=29	=29	=29	=29	=29
!	!	!	!	!LO:DY:rj
(8Dn\L	.	(8ff\L	.	p
8A-\	.	8ee-\	.	.
8f\J)	.	8ddn\	.	.
8r	.	8cc\J	.	.
(8GG\L	.	8bn\L	.	.
8F\)	.	8dd\	.	.
8Bn\J	.	8a-\	.	.
8r	.	8g\J	.	.
!!LO:LB:g=original
=30	=30	=30	=30	=30
(8C\L	.	4cc\)	.	.
8G\	.	.	.	.
!	!	!	!	!LO:DY:rj
8An\	.	4gg\ 4ee-\ 4g^\	.	f
8Bn\J	.	.	.	.
8c\L	.	4gg\ 4ee-\ 4g^\	.	.
8dn\	.	.	.	.
8e-\J)	.	4gg\ 4cc\ 4g^\	.	.
8r	.	.	.	.
=31	=31	=31	=31	=31
!	!	!	!	!LO:DY:rj
(8G\L	.	(8bb-X\L	.	p
8d-X\	.	8aa-\	.	.
8f\J)	.	8gg\	.	.
8r	.	8ff\J	.	.
(8C\L	.	8een\L	.	.
8B-\	.	8gg\	.	.
8en\J)	.	8dd-X\	.	.
8r	.	8cc\J)	.	.
=32	=32	=32	=32	=32
(8F\L	.	4ff\	.	.
8c\	.	.	.	.
!	!	!	!	!LO:DY:rj
8a-\	.	4ccc\ 4ff\ 4cc^\	.	f
8c\J	.	.	.	.
8E-\L	.	4ccc\ 4gg\ 4cc^\	.	.
8c\	.	.	.	.
8g\	.	4ccc\ 4gg\ 4cc^\	.	.
8c\J)	.	.	.	.
=33	=33	=33	=33	=33
(8Dn\L	.	(8aa-^\L	.	.
8c\	.	8bb-\	.	.
8f\J)	.	8aa-\	.	.
8r	.	8gg\J	.	.
4r	.	8aa-\L	.	.
.	.	8een\	.	.
4a-\ 4dn\ 4c\	.	8ff\)	.	.
.	.	8ccc\J	.	.
=34	=34	=34	=34	=34
(8E-\L	.	(8gg^\L	.	.
8c\	.	8aa-\	.	.
8e-\J)	.	8gg\	.	.
8r	.	8ff#X\J	.	.
4r	.	8gg\L	.	.
.	.	8ddn\	.	.
4g\ 4c\	.	8ee-\)	.	.
.	.	8ccc\J	.	.
!!LO:LB:g=original
=35	=35	=35	=35	=35
(8GG\L	.	(8ee-^\L	.	.
8E-\)	.	8ff\	.	.
8c\J	.	8ee-\	.	.
8r	.	8ddn\J	.	.
4r	.	8ee-\L	.	.
.	.	8bn\	.	.
4e-\ 4G\	.	8cc\	.	.
.	.	8gg\J)	.	.
=36	=36	=36	=36	=36
(8GG\L	.	(8ff^\L	.	.
8F\)	.	8gg\	.	.
8Bn\J	.	8ff\	.	.
8r	.	8ee-\J	.	.
4r	.	8ddn\L	.	.
.	.	8cc\	.	.
4dn\ 4G\	.	8bn\	.	.
.	.	8a-\J	.	.
=37	=37	=37	=37	=37
4r	.	8g/L	.	.
.	.	8f/	.	.
4f\ 4Bn\	.	8a-/	.	.
.	.	8bn/J	.	>
4G/ 4GG/	.	8ee-\L	.	.
.	.	8ddn\	.	.
4r	.	8g\	.	.
.	.	8b\J)	.	]
=38	=38	=38	=38	=38
(8C\L	.	(8cc\L	.	mf
8G\	.	8ddn\	.	.
8e-\J)	.	8cc\	.	.
8r	.	8bn\J	.	.
4F'\	.	8cc\L	.	.
.	.	8a-\	.	.
4c'\	.	8b-X\	.	.
.	.	8a-\J	.	.
=39	=39	=39	=39	=39
4E-\	.	8cc/L	.	.
.	.	8g/	.	>
4c'\	.	8a-/	.	.
.	.	8g/J	.	.
4GG'/	.	8f/L	.	.
.	.	8g/	.	.
4Bn\ 4F'\	.	8e-/	.	]
.	.	8dn/J)	.	.
!!LO:LB:g=original
=40	=40	=40	=40	=40
(8CC/L	.	(8c/L	.	p
8GG/	.	8dn/	.	.
8E-/J)	.	8c/	.	.
8r	.	8Bn/J	.	.
4FF'/	.	8c/L	.	.
.	.	8A-/	.	.
4C'/	.	8B-X/	.	.
.	.	8A-/J	.	.
*	*	*clefF4	*	*
=41	=41	=41	=41	=41
4EE-'/	.	8c\L	.	.
.	.	8G\	.	.
4C'/	.	8A-\	.	.
.	.	8G\J	.	.
4GG'/	.	8F\L	.	.
.	.	8G\	.	.
4BBn'/	.	8E-\	.	.
.	.	8Dn\J	.	.
=42	=42	=42	=42	=42
4CC'/	.	8C\L	.	.
.	.	8Dn\	.	.
4C/ 4GG'/	.	8E-\	.	<
.	.	8En\J	.	.
2r	.	8F\L	.	.
.	.	8G\	.	.
.	.	8A-\	.	.
.	.	8G\J	.	.
=43	=43	=43	=43	=43
1r	.	8F#X\L	.	.
.	.	8G\	.	[
.	.	8A-\	.	.
.	.	8An\J	.	.
.	.	8B-\L	.	>
.	.	8Bn\	.	.
.	.	8c\	.	.
.	.	8B\J	.	]
*	*	*clefG2	*	*
=44	=44	=44	=44	=44
1r	.	8c/L	.	<
.	.	8dn/	.	.
.	.	8e-/	.	.
.	.	8en/J	.	.
.	.	8f/L	.	.
.	.	8g/	.	.
.	.	8a-/	.	.
.	.	8g/J	.	[
=45	=45	=45	=45	=45
*	*	*^	*	*
2r	.	8f#X/L	4ryy	.	>
.	.	8g/	.	.	.
.	.	8a-/	2ryy	.	.
.	.	8an/J	.	.	.
4r	.	8b-/L	.	.	.
.	.	8bn/J)	.	.	] p
!LO:TX:t=P:problem:brak początku łuku	!	!	!	!	!
(4AA-/	.	(4cc/	8a-X\L	.	.
.	.	.	8e-\J	.	.
!!LO:PB:g=original
=46	=46	=46	=46	=46	=46
4E-'\)	.	4b-/	8g\L	.	.
.	.	.	8d-X\	.	.
(2EE-/	.	4a-/	8e-\	.	.
.	.	.	8c\J	.	.
.	.	4g/	8d-\L	.	.
.	.	.	8B-\	.	.
8FF/L	.	4f/	8d-\	.	.
8GG/J	.	.	8B-\J	.	.
=47	=47	=47	=47	=47	=47
4AA-'/)	.	2.e-/)	8d-\L	.	.
.	.	.	8c\	.	.
4D-'\	.	.	8B-\	.	.
.	.	.	8G\J	.	.
4C'/	.	.	8B-\L	.	.
.	.	.	8A-\	.	.
(4FF/	.	(4a-/	8f\	.	.
.	.	.	8e-\J	.	.
=48	=48	=48	=48	=48	=48
4BB-/	.	4b-/	8d-\L	.	.
.	.	.	8g-X\	.	.
4AAn/	.	4cc/	8f\	.	.
.	.	.	8e-\J	.	.
4BB-/	.	4dd-/	8d-\L	.	.
.	.	.	8e-\	.	.
4D-/	.	4b-/	8f\	.	.
.	.	.	8gn\J	.	.
=49	=49	=49	=49	=49	=49
4C/)	.	2.ee-/)	8e-\L	.	.
.	.	.	8a-\	.	.
4E-'\	.	.	8g\	.	.
.	.	.	8a-\J	.	.
4GG'/	.	.	8b-\L	.	.
.	.	.	8e-\	.	.
(4AA-/	.	(4cc/	8a-\	.	.
.	.	.	8e-\J	.	.
!!LO:LB:g=original
=50	=50	=50	=50	=50	=50
4BB-/	.	4b-/	8d-\L	.	.
.	.	.	8e-\	.	.
2C/)	.	4a-/	8f\	.	.
.	.	.	8c\J	.	.
.	.	4g/	8en\L	.	.
.	.	.	8B-\	.	.
(4FF/	.	4f/)	8c\	.	.
.	.	.	8A-\J	.	.
=51	=51	=51	=51	=51	=51
4C/	.	2.e-X/	8c\L	.	.
.	.	.	8G\	.	.
4BB-/	.	.	8d-\	.	.
.	.	.	8G\J	.	.
4AA-/	.	.	8c\L	.	.
.	.	.	8A-\	.	.
4FF/	.	(4a-/	8d-\	.	.
.	.	.	8A-\J	.	.
=52	=52	=52	=52	=52	=52
4FF-X/	.	4b-/	8d-\L	.	.
.	.	.	8a-\	.	.
2EE-/)	.	4cc/	8g\	.	.
.	.	.	8fn\J	.	.
.	.	4dd-/	8g\L	.	.
.	.	.	8e-\	.	.
(8FFn/L	.	4b-/	8d-\	.	.
8GG\J	.	.	8e-\J	.	.
*	*	*v	*v	*	*
=53	=53	=53	=53	=53
8AA-\L	.	[2a-/ [2c/	.	.
8Dn\	.	.	.	.
8F\	.	.	.	.
8E-\J	.	.	.	.
8A-\)	.	8a-/] 8c/])	.	.
8r	.	8r	.	.
!	!	!	!	!LO:DY:rj
8D-X'\L	.	8f/L 8d-/ 8A-'/	.	p
8D-'\J	.	8f/J 8d-/ 8A-'/	.	.
!!LO:LB:g=original
=54||	=54||	=54||	=54||	=54||
*k[b-e-a-d-g-]	*	*k[b-e-a-d-g-]	*	*
!	!	!LO:TX:a:i:t=grazioso	!	!
4F'\	.	4a-/ 4d-/ 4A-'/	.	.
8D-'/L	.	8f/L 8d-/ 8A-'/	.	.
8AA-'/J	.	8e-/J 8c/ 8A-'/	.	.
4FF'/	.	4d-/ 4A-'/	.	.
8FF'/L	.	8d-/L 8c-X/ 8A-'/	.	.
8FF'/J	.	8e-/J 8c-/ 8A-'/	.	.
=55	=55	=55	=55	=55
4GG-'/	.	4d-/ 4B-'/	.	.
4G-/ 4D-/ 4GG-^^/	.	4b-/ 4d-/ 4B-^^/	.	.
4r	.	4r	.	.
8G-'\L	.	8e-/L 8d-/ 8B-'/	.	.
8F'\J	.	8f/J 8d-/ 8B-'/	.	.
=56	=56	=56	=56	=56
4E-'\	.	4g-/ 4d-/ 4B-'/	.	.
8D-/L	.	8b-/L 8g-/ 8d-'/	.	.
8C'/J	.	8b-/J 8g-/ 8d-'/	.	.
4BB-'/	.	4dd-/ 4g-/ 4d-'/	.	.
8C'/L	.	8cc/L 8g-/ 8e-'/	.	.
8D-'/J	.	8b-/J 8g-/ 8d-'/	.	.
=57	=57	=57	=57	=57
4E-\	.	4a-/ 4g-/ 4c'/	.	.
4A-\ 4E-\ 4AA-^^\	.	4ee-^^/: 4a-/: 4g-/: 4c:/	.	.
4r	.	4r	.	mf
8C/L 8CC/	.	8a-/L 8g-/ 8e-/ 8A-/	.	.
8C/J 8CC/	.	8a-/J 8g-/ 8e-/ 8A-/	.	.
!!LO:LB:g=original
=58	=58	=58	=58	=58
4D-/ 4DD-/	.	4ff\ 4a-\ 4f\	.	.
8G-/L 8GG-/	.	8ee-\L 8a-\ 8e-\	.	.
8G-/J 8GG-/	.	8ff\J 8a-\ 8f\	.	.
4F/ 4FF/	.	4dd-/ 4a-/ 4d-/	.	.
8G-/L 8GG-/	.	8b-/L 8g-/ 8d-/	.	.
8G-/J 8GG-/	.	8b-/J 8g-/ 8d-/	.	.
=59	=59	=59	=59	=59
4E-/ 4EE-/	.	4dd-/ 4b-/ 4g-/ 4d-/	.	.
8F/L 8FF/	.	8cc/L 8a-/ 8c/	.	.
8F/J 8FF/	.	8dd-/J 8a-/ 8d-/	.	.
4C/ 4CC/	.	4a-/ 4g-/ 4e-/ 4A-/	.	.
8D-/L 8DD-/	.	8f/L 8d-/ 8A-/	.	p
8D-/J 8DD-/	.	8gn/J 8e-/ 8B-/	.	.
=60	=60	=60	=60	=60
!	!	!LO:TX:a:i:t=rallentando	!	!
4C/ 4CC/	.	4a-/ 4e-/ 4A-/	.	.
8BB-/L 8BBB-/	.	8dd-/L 8a-/ 8f/ 8d-/	.	.
8BB-/J 8BBB-/	.	8dd-/J 8a-/ 8f/ 8d-/	.	.
4E-/ 4EE-/	.	4f/: 4d-/: 4A-/: 4F:/	.	.
8EE-/L 8EEE-/	.	8gn/L 8d-/ 8Gn/	.	<
8EE-/J 8EEE-/	.	8g/J 8d-/ 8G/	.	.
=61	=61	=61	=61	=61
4AA-/ 4AAA-/	.	4e-/ 4c/ 4A-/	.	[
!	!	!LO:TX:t=P:problem:arpeggio przez 2 systemy	!	!
4E-/: 4AA-:/	.	4a-/: 4e-/: 4c/: 4A-:/	.	.
4r	.	4r	.	.
!	!	!LO:TX:a:i:t=à tempo	!	!LO:DY:rj
8D-'\L	.	8f/L 8d-/ 8A-'/	.	p
8D-'\J	.	8f/J 8d-/ 8A-'/	.	.
=62	=62	=62	=62	=62
4F'\	.	4a-/ 4d-/ 4A-'/	.	.
8D-'/L	.	8f/L 8d-/ 8A-'/	.	.
8AA-'/J	.	8e-/J 8c/ 8A-'/	.	.
4FF'/	.	4d-/ 4A-'/	.	.
8FF'/L	.	8d-/L 8c-X/ 8A-'/	.	.
8FF'/J	.	8e-/J 8c-/ 8A-'/	.	.
=63	=63	=63	=63	=63
4GG-'/	.	4d-/ 4B-'/	.	.
4G-/ 4D-/ 4GG-^^/	.	4b-/ 4d-/ 4B-^^/	.	.
4r	.	4r	.	.
8G-'\L	.	8e-/L 8d-/ 8B-'/	.	.
8F'\J	.	8f/J 8d-/ 8B-'/	.	.
=64	=64	=64	=64	=64
4E-'\	.	4g-/ 4d-/ 4B-'/	.	.
8D-'/L	.	8b-/L 8g-/ 8d-'/	.	.
8C'/J	.	8b-/J 8g-/ 8d-'/	.	.
4BB-'/	.	4dd-/ 4g-/ 4d-'/	.	.
8C'/L	.	8cc/L 8g-/ 8e-'/	.	.
8D-'/J	.	8b-/J 8g-/ 8d-'/	.	.
=65	=65	=65	=65	=65
4E-'\	.	4a-/ 4g-/ 4c'/	.	.
4A-\ 4E-\ 4AA-^^\	.	4ee-/: 4a-/: 4g-/: 4c^^:/	.	.
4r	.	4r	.	.
!	!	!	!	!LO:DY:rj
8C/L 8CC/	.	8a-/L 8g-/ 8e-/ 8A-/	.	f
8C/J 8CC/	.	8a-/J 8g-/ 8e-/ 8A-/	.	.
!!LO:PB:g=original
=66	=66	=66	=66	=66
4D-/ 4DD-/	.	4ff\ 4a-\ 4f\	.	.
8G-/L 8GG-/	.	8ee-\L 8a-\ 8e-\	.	.
8G-/J 8GG-/	.	8ff\J 8a-\ 8f\	.	.
4F/ 4FF/	.	4dd-/ 4a-/ 4d-/	.	.
!	!	!LO:TX:a:i:t=poco sostenuto	!	!
8D-/L 8DD-/	.	8b-/L 8f/	.	pp
8D-/J 8DD-/	.	8b-/J 8f/	.	.
=67	=67	=67	=67	=67
4C/ 4CC/	.	4dd-/ 4b-/ 4en/	.	.
8A-\L 8C\	.	8cc/L 8a-/ 8e/	.	.
8G-\J 8C\	.	8dd-/J 8b-/ 8e/	.	.
4B-\ 4BB-\	.	4g-/ 4en/ 4c/	.	.
8BB-/L 8BBB-/	.	8a-/L 8e/ 8c/	.	.
8BB-/J 8BBB-/	.	8b-/J 8e/ 8c/	.	.
=68	=68	=68	=68	=68
4AA-/ 4AAA-/	.	4cc/ 4f/ 4c/	.	.
8GG-/L 8GGG-/	.	8dd-/L 8b-/ 8f/	.	.
8GG-/J 8GGG-/	.	8ee-/J 8b-/ 8f/	.	.
4C/ 4CC/	.	4b-/ 4g-/ 4f/	.	.
!	!	!LO:TX:a:i:t=rallent	!	!
8C/L 8CC/	.	8cc/L 8a-/ 8en/	.	.
8C/J 8CC/	.	8dd-/J 8g-/ 8e/	.	.
=69	=69	=69	=69	=69
4C/ 4FF/	.	4cc/: 4en/: 4B-:/	.	.
4C/ 4FF/	.	4f/ 4A-/	.	.
2r	.	4r	.	.
.	.	(8a-/L	.	p
.	.	8an/J	.	.
!!LO:LB:g=original
=70	=70	=70	=70	=70
*ped	*	*	*	*
(8qAA-/	.	.	.	.
(12G-X\L)	1	4b-\	.	.
12A-\	3	.	.	.
12c\J	.	.	.	.
8e-\)	.	8cc\L	.	.
8r	.	8ee-\J	.	.
*Xped	*	*	*	*
2r	.	8gg-\L	.	.
.	.	8ddn\	.	.
.	.	8ee-\)	.	.
.	.	8ff\J	.	.
=71	=71	=71	=71	=71
*ped	*	*	*	*
(8qAA-/	.	.	.	.
(12F\L)	.	(4a-/	.	.
12A-\	.	.	.	.
12d-\J	.	.	.	.
8f\)	.	8b-\L	.	.
*Xped	*	*	*	*
8r	.	8dd-\J	.	.
2r	.	8ff\L	.	.
.	.	8cc\	.	.
.	.	8dd-\	.	.
.	.	8ee-\J)	.	.
=72	=72	=72	=72	=72
4AA-/	.	(8g-/L	.	.
.	.	8a-/	.	.
4B-\ 4G-\ 4E-'\	.	8dd-/	.	.
.	.	8b-/J	.	.
4c\ 4G-\ 4E-'\	.	8ee-/L	.	.
.	.	8cc/	.	.
4AA-'/	.	8g-/	.	.
.	.	8b-/J	.	.
=73	=73	=73	=73	=73
*	*below	*	*	*
(12DD-/L	5	2a-/)	.	.
12AA-/	3	.	.	.
12BB-/J	2	.	.	.
12C/L	1	.	.	.
12D-/	3	.	.	.
12E-/J	.	.	.	.
12F\L	.	4r	.	.
12A-\	.	.	.	.
12d-\J	.	.	.	.
!	!	!	!	!LO:DY:rj
8f\)	.	(8dd-\L	.	mf
8r	.	8ddn\J	.	.
!!LO:LB:g=original
=74	=74	=74	=74	=74
(8qD-/	.	.	.	.
(12c-X\L)	.	4ee-\	.	.
12d-\	.	.	.	.
12f\J	.	.	.	.
8a-\)	.	8ff\L	.	.
8r	.	8aa-\J	.	.
2r	.	8ccc-X\L	.	.
.	.	8ggn\	.	.
.	.	8aa-\	.	.
.	.	8bb-\J)	.	.
=75	=75	=75	=75	=75
(12D-\L	.	(4dd-\	.	.
12B-\	.	.	.	.
12d-\J	.	.	.	.
8g-\)	.	8ee-\L	.	.
8r	.	8gg-X\J	.	.
2r	.	8bb-\L	.	.
.	.	8aa-\	.	.
.	.	8gg-\	.	.
.	.	8aa-\J)	.	.
=76	=76	=76	=76	=76
4D-\	.	(8cc-X\L	.	.
.	.	8dd-\	.	.
4e-\ 4c-X\ 4A-\	.	8gg-\	.	.
.	.	8ff\J	.	.
4f\ 4c-\ 4A-\	.	8bb-\L	.	.
.	.	8aa-\	.	.
4r	.	8ff\	.	.
.	.	8ee-\J	.	.
=77	=77	=77	=77	=77
(8BB-\L	.	8dd-\L)	.	f
8G-\J	.	(8ddd-\	.	.
8d-\)	.	8bb-\	.	.
8r	.	8aa-\J	.	.
2r	.	8gg-\L	.	.
.	.	8ff\	.	.
.	.	8gg-\	.	.
.	.	8aa-\J	.	.
!!LO:LB:g=original
=78	=78	=78	=78	=78
(8E-\L	.	8bb-\L)	.	.
8B-\	.	(8b-\	.	.
8e-\J)	.	8gg-\	.	.
8r	.	8ff\J	.	.
2r	.	(8ee-\L	.	.
.	.	8ddn\	.	.
.	.	8ee-\)	.	.
.	.	8ff\J	.	.
=79	=79	=79	=79	=79
(8AA-/L	.	8gg-\L)	.	.
8E-/J)	.	(8b-\	.	.
8cn\ 8G-\	.	8ee-\	.	.
8r	.	8dd-X\J	.	.
2r	.	8cc\L	.	>
.	.	8ee-\	.	.
.	.	8b-\	.	.
.	.	8cc\J	.	.
=80	=80	=80	=80	=80
2r	.	8a-/L	.	.
.	.	8cc/	.	.
.	.	8f/	.	]
.	.	8g-/J	.	.
4r	.	8e-/)	.	p
.	.	8r	.	.
8D-'\L	.	8f/L 8d-/ 8A-'/	.	.
8D-'\J	.	8f/J 8d-/ 8A-'/	.	.
=81	=81	=81	=81	=81
4F'\	.	4a-/ 4d-/ 4A-'/	.	.
8D-'/L	.	8f/L 8d-/ 8A-'/	.	.
8AA-'/J	.	8e-/J 8c/ 8A-'/	.	.
4FF'/	.	4d-/ 4A-'/	.	.
8FF'/L	.	8d-/L 8c-X/ 8A-'/	.	.
8FF'/J	.	8e-/J 8c-/ 8A-'/	.	.
=82	=82	=82	=82	=82
8GG-'/	.	8d-/ 8B-'/	.	.
8r	.	8r	.	.
*ped	*	*	*	*
8g-\: 8d-\: 8G-:\	.	(12b-\L	.	.
.	.	12cc-X\	.	.
8r	.	.	.	.
.	.	12dd-\J	.	.
!	!	!LO:TX:b:i:t=dolce	!	!
2r	.	12ee-\L	.	.
.	.	12ff\	.	.
.	.	12gg-\J	.	.
.	.	12aa-\L	3	.
.	.	12bb-\	4	.
.	.	12ddd-\J	5	.
!!LO:LB:g=original
=83	=83	=83	=83	=83
4r	.	8gg-\)	1	.
.	.	8r	.	.
8G-'\L	.	8b-/L 8g-/ 8d-'/	.	.
8D-'\J	.	8b-/J 8g-/ 8d-'/	.	.
4BB-'/	.	4dd-/ 4g-/ 4d-'/	.	.
8Cn'/L	.	8ccn/L 8g-/ 8e-'/	.	.
8D-'/J	.	8b-/J 8g-/ 8d-'/	.	.
=84	=84	=84	=84	=84
8E-'\	.	8a-/ 8g-/ 8c'/	.	.
*ped	*	*	*	*
8r	.	8r	.	.
!	!	!LO:TX:b:i:t=leggiero	!	!
8c\: 8G-\: 8E-\: 8AA-:\	.	(12ee-\L	2	.
.	.	12ff\	.	.
8r	.	.	.	.
.	.	12gg-\J	.	.
2r	.	12aa-\L	.	.
.	.	12bb-\	.	.
.	.	12ccc\J	1	.
.	.	12ddd-\L	.	<
.	.	12eee-\	.	.
.	.	12eeen\J	4	[[
=85	=85	=85	=85	=85
8d-\ 8A-\ 8D-\	.	8fff\)	5	.
8r	.	8r	.	.
!	!	!	!	!LO:DY:t=sempre p.
8G-/L 8GG-'/	.	8eee-X\L 8aa-\ 8ee-X'\	.	p
8G-/J 8GG-'/	.	8fff\J 8aa-\ 8ff'\	.	.
4F/ 4FF'/	.	4ddd-\ 4aa-\ 4dd-'\	.	.
8G-/L 8GG-'/	.	8bb-\L 8gg-\ 8dd-'\	.	.
8F/J 8FF'/	.	8bb-\J 8gg-\ 8dd-'\	.	.
=86	=86	=86	=86	=86
4E-/ 4EE-'/	.	4ddd-\ 4bb-\ 4gg-\ 4dd-'\	.	.
8E-/L 8EE-'/	.	8ccc\L 8ggn\ 8dd-'\	.	.
8E-/J 8EE-'/	.	8ddd-\J 8gg\ 8dd-'\	.	.
4D-/ 4DD-'/	.	4gg\ 4ee-\ 4b-\ 4gn'\	.	.
4e-\ 4B-\ 4Gn\	.	(12ee-\L	.	.
.	.	12ff\	.	.
.	.	12gg\J	.	.
!!LO:PB:g=original
=87	=87	=87	=87	=87
*	*	*Xtuplet	*	*
4C/	.	12aa-\L	.	.
.	.	12bb-\	.	.
.	.	12ccc\J	.	.
4e-\ 4A-\	.	12ddd-\L	.	.
.	.	12eee-\	.	.
.	.	12fff\J	.	<
*	*	*8va	*	*
2r	.	12gggn\L	.	.
.	.	12aaa-\	.	.
.	.	12bbb-\J	.	.
.	.	12bbbn\L	1	.
.	.	12cccc\	2	.
.	.	12ffff\J	5	.
=88	=88	=88	=88	=88
4GGn/	.	12eeee-\L	4	.
.	.	12bbb-X\	2	[
.	.	12cccc\J	.	f
4d-\ 4B-\ 4E-\	.	12bbb-\L	.	.
.	.	12fff\	.	.
.	.	12gggn\J	.	.
2r	.	12bbb-\L	4	.
.	.	12ggg\	.	.
.	.	12fff\J	.	.
.	.	12eee-\L	2	.
.	.	12fff\	.	.
.	.	12eee-\J	.	.
=89||	=89||	=89||	=89||	=89||
*k[b-e-a-d-]	*	*k[b-e-a-d-]	*	*
!LO:TX:t=P:problem:znaki [b- e- a- d- gn]	!	!LO:TX:t=P:problem:znaki [b- e- a- d- gn]	!	!
4AA-/	.	12aaa-\L	5	.
.	.	12eee-\	.	.
.	.	12fff\J	.	.
*	*	*X8va	*	*
4c\ 4E-\	.	12eee-\L	.	.
.	.	12ccc\	1	.
.	.	12ddd-\J	2	.
2r	.	12fff\L	4	.
.	.	12eee-\	.	.
.	.	12ddd-\J	.	.
.	.	12ccc\L	.	.
.	.	12bb-\	4	.
.	.	12aa-\J	.	.
!!LO:LB:g=original
=90	=90	=90	=90	=90
4E-/ 4EE-/	.	12gg\L	2	.
.	.	12aa-\	.	.
.	.	12gg\J	.	.
4r	.	12bb-\L	.	.
.	.	12gg\	.	.
.	.	12ff\J	.	.
!	!	!	!	!LO:DY:b=2
4g\ 4d-\ 4B-\ 4E-\	.	12ee-\L	2	sfz
.	.	12ff\	3	.
.	.	12ddn\J	1	.
4r	.	12ee-\L	.	.
.	.	12ff\	.	.
.	.	12dd\J	.	>
=91	=91	=91	=91	=91
1r	.	12ee-\L	.	.
.	.	12ff\	.	.
.	.	12ddn\J	.	.
.	.	12ee-\L	.	.
.	.	12ff\	.	.
.	.	12dd\J	.	.
.	.	12ee-\L	.	.
.	.	12ff\	1	.
.	.	12gg\J	.	.
.	.	12aa-\L	.	.
.	.	12gg\	.	.
.	.	12ff\J	.	.
=92	=92	=92	=92	=92
!	!	!LO:TX:b:i:t=poco riten	!	!
2r	.	12gg\L	.	.
.	.	12aa-\	.	.
.	.	12gg\J	.	.
.	.	12bb-\L	4	.
.	.	12gg\	2	.
.	.	12ee-\J	1	.
4r	.	12bbn\L	.	.
.	.	12gg\	.	.
.	.	12ee-\J)	.	.
!	!	!LO:TX:a:i:t=à tempo	!	!LO:DY:rj
4A-\	.	(12ccc|\L	5	pp
.	.	12aa-\	3	.
.	.	12ee-|\J	.	.
=93	=93	=93	=93	=93
*	*	*^	*	*
4e-\	.	4bb-X/	12bb-X\L	5	.
.	.	.	12ee-\	.	.
.	.	.	12dd-\J	.	.
2E-\	.	4aa-/	12aa-\L	.	.
.	.	.	12cc\	.	.
.	.	.	12ee-\J	.	.
.	.	4gg/	12gg\L	.	.
.	.	.	12dd-\	.	.
.	.	.	12b-\J	.	.
4B-\	.	4ff/	12ff\L	.	.
.	.	.	12g\	.	.
.	.	.	12dd-\J	.	.
!!LO:LB:g=original
=94	=94	=94	=94	=94	=94
4c\	.	2ee-/	12ee-\L	5	.
.	.	.	12a-\	1	.
.	.	.	12cc\J	3	.
4d-\	.	.	12b-\L	2	.
.	.	.	12cc\	.	.
.	.	.	12b-\J	.	.
4c\	.	4ryy	12a-\L	1	.
.	.	.	12cc\	2	.
.	.	.	12ee-\J	3	.
4A-\	.	4aa-/	12aa-\L	5	.
.	.	.	12cc\	1	.
.	.	.	12ee-\J	2	.
=95	=95	=95	=95	=95	=95
4G\	.	4bb-/	12bb-\L	.	.
.	.	.	12ee-\	.	.
.	.	.	12dd-\J	.	.
4E-\	.	4ccc/	12ccc\L	.	.
.	.	.	12gg\	.	.
.	.	.	12dd-\J	.	.
4F\	.	4ddd-/	12ddd-\L	.	.
.	.	.	12aa-\	.	.
.	.	.	12dd-\J	.	.
4G\	.	4bb-/	12bb-\L	.	.
.	.	.	12ee-\	.	.
.	.	.	12dd-\J	.	.
=96	=96	=96	=96	=96	=96
2G-X\	.	4eee-/	12eee-\L	.	.
.	.	.	12ccc\	.	.
.	.	.	12aa-\J	.	.
.	.	4ryy	12ee-\L	.	.
.	.	.	12aa-\	.	.
.	.	.	12ee-\J	.	.
2F\	.	4ryy	12aan\L	.	.
.	.	.	12ee-\	.	.
.	.	.	12aa\J	.	.
.	.	4ccc/	12ccc\L	.	.
.	.	.	12aa\	.	.
.	.	.	12ee-\J	.	.
=97	=97	=97	=97	=97	=97
4B-\	.	4bb-/	12bb-\L	.	.
.	.	.	12ff\	.	.
.	.	.	12ddn\J	.	.
4BB-/	.	4aa-/	12aa-\L	.	.
.	.	.	12dd\	.	.
.	.	.	12cc\J	.	.
4C/	.	4gg/	12gg\L	.	.
.	.	.	12ee-\	.	.
.	.	.	12b-\J	.	.
4Dn/	.	4ff/	12ff\L	.	.
.	.	.	12b-\	.	.
.	.	.	12a-\J	.	.
!!LO:LB:g=original
=98	=98	=98	=98	=98	=98
*	*	*	*	*^	*
4E-\	.	2ee-/	12ee-\L	4	.	.
.	.	.	12b-\	.	.	.
.	.	.	12g\J	.	.	.
4D-X\	.	.	12b-\L	.	.	.
.	.	.	12cc\	.	.	.
.	.	.	12b-\J	.	.	.
4C/	.	4ryy	12a-\L	1	.	.
.	.	.	12ff\	3	.	.
.	.	.	12ee-\J	2	.	.
4F\	.	4aa-/	12aa-\L	5	.	.
.	.	.	12ff\	3	.	.
.	.	.	12cc\J	1	.	.
=99	=99	=99	=99	=99	=99	=99
4D-\	.	4bb-/	12bb-\L	.	.	.
.	.	.	12b-\	.	.	.
.	.	.	12ff\J	.	.	.
4C/	.	4ccc/	12ccc\L	.	.	.
.	.	.	12een\	.	.	.
.	.	.	12gg\J	.	.	.
4BB-/	.	4ddd-/)	12ddd-\L	.	.	.
.	.	.	12ff\	1	.	.
.	.	.	12aa-\J	3	.	.
4E-X\	.	4ryy	12bb-\L	4	.	.
.	.	.	12dd-\	.	.	.
.	.	.	12gg\J	3	.	.
*	*	*	*	*v	*v	*
=100	=100	=100	=100	=100	=100
!	!	!	!LO:TX:t=P:problem:palcowanie się nie wyświetla	!	!
8AA-/	.	2ryy	12aa-\L	4	.
.	.	.	12ee-\	.	.
8r	.	.	.	.	.
.	.	.	12cc\J	.	.
*Xbrackettup	*	*	*	*	*
12r	.	.	8a-/	.	.
(12f\L	.	.	.	.	.
.	.	.	8r	.	.
12e-\J	.	.	.	.	.
12d-\L	.	4ryy	4r	.	.
12c\	.	.	.	.	.
12B-\J	.	.	.	.	.
4A-\	.	(4aa-/	12aa-\L	.	p
.	.	.	12ee-\	.	.
.	.	.	12cc\J	.	.
=101	=101	=101	=101	=101	=101
4E-'\)	.	4bb-/	12bb-\L	.	.
.	.	.	12gg\	.	.
.	.	.	12b-\J	.	.
*Xtuplet	*	*	*	*	*
(12B-\L	.	4aa-/	12aa-\L	.	.
12c\	.	.	12ff\	.	.
12B-\J	.	.	12b-\J	.	.
4c'\)	.	4gg/	12gg\L	.	.
.	.	.	12ee-\	.	.
.	.	.	12b-\J	.	.
(12B-\L	.	4aa-/	12aa-\L	.	.
12c\	.	.	12ff\	.	.
12B-\J	.	.	12b-\J	.	.
!!LO:LB:g=original
=102	=102	=102	=102	=102	=102
4Dn'\)	.	4bb-/	12bb-\L	.	.
.	.	.	12ff\	.	.
.	.	.	12b-\J	.	.
(12B-\L	.	4aa-/	12aa-\L	.	.
12c\	.	.	12ff\	.	.
12B-\J	.	.	12b-\J	.	.
4D-X'\)	.	4gg/	12gg\L	.	.
.	.	.	12ee-\	.	.
.	.	.	12b-\J	.	.
(12B-\L	.	4aa-/	12aa-\L	.	.
12c\	.	.	12ee-\	.	.
12B-\J	.	.	12b-\J	.	.
=103	=103	=103	=103	=103	=103
4C'/)	.	4bb-/	12bb-\L	.	.
.	.	.	12ee-\	.	.
.	.	.	12a-\J	.	.
(12c\L	2	4aa-/	12aa-\L	.	.
12e-\	1	.	12ee-\	.	.
12c\J	.	.	12a-\J	.	.
4B-'\)	.	4gg/	12gg\L	.	.
.	.	.	12ee-\	.	.
.	.	.	12b-\J	.	.
(12A-\L	.	4aa-/	12aa-\L	.	.
12e-\	.	.	12ee-\	.	.
12A-\J	.	.	12cc\J	.	.
=104	=104	=104	=104	=104	=104
!	!	!LO:TX:a:i:t=Piu tranquillo e	!	!	!
4G'\)	.	4bb-/	12bb-\L	.	.
.	.	.	12ee-\	.	.
.	.	.	12b-\J	.	.
(12F\L	.	4aa-/	12aa-\L	.	.
12B-\	.	.	12ddn\	.	.
12F\J	.	.	12b-\J	.	.
4B-\)	.	4ff/	12ff\L	.	.
.	.	.	12dd\	.	.
.	.	.	12a-\J	.	.
4r	.	4aa-/)	12aa-\L	.	.
.	.	.	12dd\	.	.
.	.	.	12b-\J	.	.
*	*	*v	*v	*	*
=105	=105	=105	=105	=105
!	!	!LO:TX:t=al_lar_gan_do:dur=7q:ext=cd:problem:text with extension lines	!	!LO:DY:rj
(12E-\L	.	(4bb-\ 4dd-X\	.	f
12B-\	.	.	.	.
12e-\J	.	.	.	.
12c\L	.	4aa-\ 4ee-\ 4a-\	.	.
12e-\	.	.	.	.
12c\J	.	.	.	.
12B-\L	.	4gg\ 4dd-\ 4b-\	.	.
12e-\	.	.	.	.
12B-\J	.	.	.	.
12A-\L	.	4ff\ 4dd-\ 4f\)	.	.
12e-\	.	.	.	.
12A-\J	.	.	.	.
!!LO:PB:g=original
=106	=106	=106	=106	=106
*	*	*^	*	*
12G\L	.	2.ee-/ 2.dd-/	4b-\	.	.
12e-\	.	.	.	.	.
12G\J	.	.	.	.	.
12e-\L	.	.	4a-\	.	.
12F\	.	.	.	.	.
12e-\J	.	.	.	.	.
12E-\L	.	.	4g\	.	.
12B-\	.	.	.	.	.
12e-\J	.	.	.	.	.
12C\L	.	4ryy	4aa-\ 4ee-\ 4a-\	.	.
!	!	!	!	!	!LO:HP:t=crescendo molto
12A-\	.	.	.	.	<
12e-\J)	.	.	.	.	.
*	*	*v	*v	*	*
=107	=107	=107	=107	=107
(12BB-\L	.	4bb-\ 4ff\ 4dd-\ 4b-^\	.	.
12F\	.	.	.	.
12B-\J	.	.	.	.
8d-\)	.	4ccc\ 4cc^\	.	.
8r	.	.	.	.
(12E-\L 12EE-\	.	4ddd-\ 4gg\ 4dd-^\	.	.
*	*above	*	*	*
12G\	3	.	.	.
12B-\J	2	.	.	.
8e-\)	1	4bb-\ 4b-^\	.	.
8r	.	.	.	.
=108	=108	=108	=108	=108
12r	.	2.eee-\ 2.aa-\ 2.ee-^\	.	.
(12CC/L	5	.	.	.
12AA-/J	2	.	.	.
12C\L	1	.	.	.
12E-\	4	.	.	.
12A-\J	.	.	.	.
8c\)	.	.	.	.
8r	.	.	.	.
!	!	!LO:TX:b:i:t=pesante.	!	!
!	!	!LO:TX:a:t=Maestoso	!	!LO:DY:rj
4FF/ 4FFF^/	.	4ccc^\ 4aa-\ 4ee-\ 4cc\	.	ff
=109	=109	=109	=109	=109
4GG-X/ 4GGG-X^/	.	4bb-\ 4gg-X\ 4dd-\ 4b-^\	.	.
4D-/ 4DD-^/	.	4aa-\ 4ff\ 4dd-\ 4a-^\	.	.
4Dn/ 4DDn^/	.	4ggn\ 4ff\ 4bn\ 4gn^\	.	.
4GG-/ 4GGG-^/	.	4ff\ 4dd-\ 4b\ 4f^\	.	.
!!LO:LB:g=original
=110	=110	=110	=110	=110
2.C/ 2.CC^/	.	2.ee-/ 2.cc/ 2.g/ 2.e-^/	.	.
!	!	!LO:TX:b:i:t=ritenuto	!	!
4BB-X/ 4BBB-X^/	.	4aa-\ 4ff\ 4ddn\ 4a-^\	.	.
=111	=111	=111	=111	=111
4GG/ 4GGG^/	.	4bb-\ 4ff\ 4dd-X\ 4b-^\	.	.
4FF/ 4FFF^/	.	4ccc\ 4aan\ 4ee-\ 4cc^\	.	.
4FF-X/ 4FFF-X^/	.	4ddd-\ 4bb-\ 4gg-X\ 4dd-^\	.	.
4EE-/ 4EEE-^/	.	4bb-\ 4ggn\ 4dd-\ 4b-^\	.	.
=112	=112	=112	=112	=112
!	!	!LO:TX:a:i:t=Tempo Io.	!	!
(12AA-\L 12AAA-\	.	2aa-\ 2ee-\ 2cc\ 2a-\	.	f
12E-\	4	.	.	.
12A-\J	.	.	.	.
12c\L	.	.	.	.
12d-\	.	.	.	.
12dn\J)	.	.	.	.
*	*	*tuplet	*	*
*	*	*Xbrackettup	*	*
!	!	!LO:TUP:b	!	!
8e-\	.	12r	.	.
.	.	(12a-/L	2	.
8r	.	.	.	.
.	.	12b-/J	3	.
*	*	*Xtuplet	*	*
4r	.	12cc\L	1	.
.	.	12ee-\	.	.
.	.	12aa-\J	.	.
*clefG2	*	*tuplet	*	*
=113	=113	=113	=113	=113
(12A-/L	.	4ccc\)	.	.
12e-/	5	.	.	.
12a-/J	2	.	.	.
12cc\L	1	4r	.	.
12dd-\	.	.	.	.
12ddn\J	.	.	.	.
8ee-\)	.	12r	.	.
.	.	(12aa-\L	2	.
8r	.	.	.	.
.	.	12bb-\J	.	.
4r	.	12ccc\L	.	.
.	.	12eee-\	.	.
.	.	12aaa-\J	.	.
!!LO:LB:g=original
=114	=114	=114	=114	=114
*	*	*8va	*	*
*	*	*Xtuplet	*	*
1r	.	12cccc\L	.	.
.	.	12ggg\	1	.
.	.	12aaa-\J	2	.
.	.	12bbb-\L	3	.
.	.	12cccc\	1	.
.	.	12dddd-\J	.	.
.	.	12ddddn\L	.	.
.	.	12ffff\	5	.
.	.	12eeee-\J	4	.
.	.	12cccc\L	.	.
.	.	12aaa-\	.	.
.	.	12fff\J	1	.
=115	=115	=115	=115	=115
1r	.	12eee-\L	2	.
.	.	12aaa-\	5	.
.	.	12fff\J	1	.
.	.	12cccc\L	3	.
.	.	12aaa-\	.	.
.	.	12fff\J	1	.
*	*	*X8va	*	*
.	.	12eee-\L	4	.
.	.	12ccc\	.	.
.	.	12aa-\J	.	.
.	.	12ff\L	1	.
.	.	12ee-\	4	.
.	.	12cc\J	.	.
*clefF4	*	*	*	*
=116	=116	=116	=116	=116
!	!	!LO:TX:t=P:problem:mixed beam	!	!
1ryy	.	12a-\L	2	.
!	!	!LO:TX:a:i:t=con forza	!	!
.	.	12f\	1	.
*	*	*	*below	*
.	.	12e-</J	2	.
!	!	!LO:TX:t=P:problem:mixed beam	!	!
.	.	12A-</L	5	.
*	*	*	*above	*
.	.	12cc\	5	.
.	.	12f\J	1	.
!	!	!LO:TX:t=P:problem:mixed beam	!	!
.	.	12a-\L	.	.
.	.	12f/	.	.
.	.	12e-</J	.	.
!	!	!LO:TX:t=P:problem:mixed beam	!	!
.	.	12A-</L	.	.
.	.	12ee-\	.	.
.	.	12f\J	.	.
!!LO:LB:g=original
=117	=117	=117	=117	=117
1ryy	.	12a-\L	.	.
!	!	!LO:TX:t=P:problem:mixed beam	!	!
.	.	12f\	.	.
.	.	12e-</J	.	.
!	!	!LO:TX:t=P:problem:mixed beam	!	!
.	.	12A-</L	.	.
.	.	12cc\	.	.
.	.	12f\J	.	.
!	!	!LO:TX:t=P:problem:mixed beam	!	!
.	.	12a-\L	.	.
.	.	12f\	.	.
.	.	12e-</J	.	.
!	!	!LO:TX:t=P:problem:mixed beam	!	!
.	.	12A-</L	.	.
.	.	12ee-\	5	.
.	.	12f\J	1	.
=118	=118	=118	=118	=118
4e-\ 4A-\	.	4aa-\ 4cc\)	2 5	.
4r	.	4r	.	.
2r	.	2r	.	.
=119	=119	=119	=119	=119
!	!	!LO:TX:t=P:problem:arpeggio przez 2 systemy	!	!
2E-/: 2AA-:/	.	2a-/: 2e-/: 2c/: 2A-:/	.	.
!	!	!LO:TX:t=P:problem:arpeggio przez 2 systemy	!	!
2E-/: 2AA-:/	.	2a-/: 2e-/: 2c/: 2A-:/	.	.
=120	=120	=120	=120	=120
(8qAAA-/	.	.	.	.
1E-/ 1AA-/;<)	.	1a-/ 1e-/ 1c/ 1A-/;	.	.
==	==	==	==	==
*-	*-	*-	*-	*-
!!!system-decoration: {(s1,s2)}
!!!RDF**kern: > = above
!!!RDF**kern: < = below
!!!RDF**dynam: > = diminuendo
!!!RDF**kern: | = vertical stroke
!!!EED: Andrzej Borzym
!!!EST: 2021-05-30
!!!ENC: Andrzej Gręziak
!!!END: 2021-05-02
